X: 65
T:High Road to Linton
R:Reel
H:Also played in G.
D:Stockton's Wing
D:Paddy Glackin: Ceol ar an bhFidil le Paddy Glackin.
Z:id:hn-reel-170
M:C|
L:1/8
Q:1/4=200
K:A
|:cefe ~a2ae|f2fe a2a2|cefe ~a3e|faec BcAB:|
|:ce~e2 fd~d2|ec~c2 dB~B2|ce~e2 faec|dcBd cAAB:|
